X: 35631
T: Sailing In
R: reel
M: 4/4
K: Emajor
E3 B GB ~B2|EBGB cAFD|E2 BE GB ~B2|AF ~F2 =DFB,F|
E3 B GB ~B2|EBGB cAFD|E2 BE GB ~B2|cAFG ABGF||
Ee (3eee e2 BA|GBeg fBBA|GBeB GBeg|fedc BcAF|
Ee (3eee e2 BA|GBeg fg a2||bgaf ge fe|dBfB ABFB||

